!!!OTL: Reiterlied.
!!!OTL-incipit: AUF ZU ROSS UND FORTGERITTEN
!!!ARE: Europa, Mitteleuropa, Deutschland, Rhein
!!!SCT: Z1139
!!!TXL: @@DE
!!!YEM: Copyright 1995, estate of Helmut Schaffrath.
**kern	**text
*ICvox	*
*M4/4	*
*met(c)	*
*k[b-e-]	*
*B-:	*
!LO:TX:a:t=Vom Rheine..	!
{8.f	Auf
16f	ʒu
=1	=1
4.b-/	Roß
8b-/	und
4.f	fort-
8f	-ge-
=2	=2
(4d	-rit-
8fL)	.
8dJ	.
4B-}	-ten
{8b-/	in
8b-/	das
=3	=3
4cc/	wei-
4dd/	-te
4cc/	Got-
4dd/	-tes-
=4	=4
8cc/L	-feld,
8ff	.
8een	.
8ddJ	.
4cc/}	.
{8cc/	in
8b-/	das
=5	=5
4a	wei-
4a	-te
4cc/	Got-
4cc/	-tes-
=6	=6
2f	-feld!
4r}	.
{8cc/	Für
8dd/	das
=7	=7
4.ee-X/	Va-
8cc/	-ter-
4ee-/	-land
4dd/	ge-
=8	=8
4dd/	-ſtrit-
4cc/	-ten,
4r}	.
{8dd/	das
8cc/	ʒu
=9	=9
4b-/	lan-
4b-/	-ge
4cc/	ſchon
4cc/	ge-
=10	=10
(>4.ff/	-lit-
8dd/)	.
4b-/}	-ten,
{8b-/	je-
8a/	-der
=11	=11
8g/L	Mann
8ee-	.
8ddJ	.
8cc/	ſey
4dd/	hier
4cc/	ein
=12	=12
2b-/	Held!
4r}	.
==	==
!!!AGN: Vaterland und Wehr
!!!ONB: ESAC (Essen Associative Code) Database: ZUCCAL
!!!AMT: simple quadruple
!!!AIN: vox
!!!EED: Helmut Schaffrath
!!!EEV: 1.0
!!!RDF**kern: >= above
!!!GTL: IV. Vaterland und Wehr.
!!!URL-scan: https://www.digitale-sammlungen.de/de/view/bsb11160573?page=308
!!!ENC: Anna Maria Matuszewska
!!!EEV: 2025/02/04
*-	*-
